icons/svg/radioactive.svg

﻿<?xml version="1.0" encoding="utf-8"?>
<!DOCTYPE svg PUBLIC "-//W3C//DTD SVG 1.1//EN" "http://www.w3.org/Graphics/SVG/1.1/DTD/svg11.dtd">
<svg xmlns="http://www.w3.org/2000/svg" xmlns:xlink="http://www.w3.org/1999/xlink" version="1.1" baseProfile="full" width="24" height="24" viewBox="0 0 24.00 24.00" enable-background="new 0 0 24.00 24.00" xml:space="preserve">
	<path fill="#000000" fill-opacity="1" stroke-width="0.2" stroke-linejoin="round" d="M 12,10C 13.1046,10 14,10.8954 14,12C 14,13.1046 13.1046,14 12,14C 10.8954,14 10,13.1046 10,12C 10,10.8954 10.8954,10 12,10 Z M 12,22C 10.0471,22 8.22487,21.4402 6.68517,20.4722L 10.0169,15.4746C 10.6014,15.8089 11.2784,16 12,16C 12.7216,16 13.3986,15.8089 13.9831,15.4746L 17.3148,20.4722C 15.7751,21.4402 13.9529,22 12,22 Z M 2,12C 2,7.85564 4.52111,4.3001 8.11335,2.7834L 10.3433,8.35816C 8.96091,8.98803 8,10.3818 8,12L 2,12 Z M 16,12C 16,10.3818 15.0391,8.98803 13.6567,8.35816L 15.8866,2.7834C 19.4789,4.3001 22,7.85563 22,12L 16,12 Z "/>
</svg>

<svg xmlns="http://www.w3.org/2000/svg" version="1.1" baseProfile="full" width="24" height="24" viewBox="0 0 24.00 24.00" xml:space="preserve"><path fill="#000" fill-opacity="1" stroke-width=".2" stroke-linejoin="round" d="M12 10c1.105 0 2 .895 2 2s-.895 2-2 2-2-.895-2-2 .895-2 2-2zm0 12c-1.953 0-3.775-.56-5.315-1.528l3.332-4.997C10.6 15.81 11.277 16 12 16c.722 0 1.4-.19 1.983-.525l3.332 4.997C15.775 21.44 13.953 22 12 22zM2 12c0-4.144 2.52-7.7 6.113-9.217l2.23 5.575C8.96 8.988 8 10.382 8 12H2zm14 0c0-1.618-.96-3.012-2.343-3.642l2.23-5.575C19.48 4.3 22 7.856 22 12h-6z"/></svg>
